X:622
T:Ships are Sailing
M:C|
L:1/8
K:G
"Em"Beed "G"B^cdB|"D"ADFD ADFD|"Em"EDEF GFGA|Beef gfed|
Beed "G"B^cdB|"D"ADFD ADFD|"Em"EDEF GFGA|1 Beed e3 d:|2 Beed e3 f||
|:"Em"gfga bgeg|"D"fefg afdf|"Em"gfga bgeg|"D"fedf "Em"e2 ef|
gfga bgeg|"D"fefg afdf|"Em"g2 bg "D"f2 af|"Em"edef gfef:|
